packages/icons/src/components/Icon/assets/default-outline/thumbs-up.svg

<svg width="20" height="20" viewBox="0 0 20 20" fill="none" xmlns="http://www.w3.org/2000/svg">
<path fill-rule="evenodd" clip-rule="evenodd" d="M10.5192 3.38462C10.5192 2.61991 11.1391 2 11.9038 2C13.3695 2 14.5577 3.18817 14.5577 4.65385C14.5577 5.7421 14.3122 6.7751 13.8729 7.69868C13.8735 7.69741 13.8718 7.6998 13.8722 7.70831C13.8723 7.70938 13.8723 7.71046 13.8725 7.71154H16.4542C17.6353 7.71154 18.7986 8.52125 18.9382 9.83317C18.9791 10.2168 19 10.6061 19 11C19 13.5868 18.0983 15.965 16.5927 17.8345C16.1025 18.4432 15.3669 18.7308 14.6507 18.7308H11.2525C10.7626 18.7308 10.276 18.6518 9.81125 18.4969L7.17595 17.6184C6.86417 17.5145 6.53767 17.4615 6.20902 17.4615H5.87167C5.86584 18.1031 5.39509 18.7308 4.62749 18.7308H3.85937C2.8338 18.7308 1.80434 18.1276 1.47312 17.0421C1.16531 16.0332 1 14.9631 1 13.8558C1 12.4465 1.26773 11.0979 1.7558 9.8595C2.14444 8.87332 3.11515 8.34615 4.07638 8.34615H4.96718C5.418 8.34615 5.76153 8.55755 5.97247 8.85977C6.19489 8.75482 6.40696 8.58357 6.58716 8.3538C7.30535 7.43807 8.21059 6.67576 9.24598 6.12436C9.75387 5.85388 10.1285 5.48619 10.3005 5.05615C10.445 4.69497 10.5192 4.30955 10.5192 3.92055V3.38462ZM4.56037 9.84615H4.07638C3.62957 9.84615 3.27894 10.0857 3.15134 10.4095C2.73117 11.4756 2.5 12.6378 2.5 13.8558C2.5 14.8132 2.64283 15.7358 2.90782 16.6043C3.01551 16.9573 3.38096 17.2308 3.85937 17.2308H4.24741C4.2127 17.1521 4.17916 17.0728 4.14682 16.9929C3.75426 16.0232 3.53846 14.9637 3.53846 13.8558C3.53846 12.4042 3.90877 11.0373 4.56037 9.84615ZM5.95029 10.4343C6.70201 10.2911 7.33377 9.83247 7.76747 9.27948C8.3577 8.52689 9.1015 7.90075 9.95107 7.44831C10.6653 7.06796 11.351 6.46875 11.6932 5.61324C11.9086 5.07488 12.0192 4.50038 12.0192 3.92055V3.5057C12.6023 3.56359 13.0577 4.05554 13.0577 4.65385C13.0577 5.51451 12.8639 6.32782 12.5183 7.05436C12.4165 7.26841 12.3711 7.49279 12.3721 7.71154H11.9038C11.4896 7.71154 11.1538 8.04733 11.1538 8.46154C11.1538 8.87575 11.4896 9.21154 11.9038 9.21154H16.4542C17.0106 9.21154 17.4024 9.57628 17.4467 9.99198C17.4819 10.3229 17.5 10.6592 17.5 11C17.5 13.2323 16.7231 15.281 15.4244 16.8937C15.2586 17.0995 14.9802 17.2308 14.6507 17.2308H11.2525C10.9239 17.2308 10.5974 17.1778 10.2856 17.0739L7.65029 16.1954C7.18556 16.0405 6.69889 15.9615 6.20902 15.9615H5.36722C5.15388 15.2987 5.03846 14.5913 5.03846 13.8558C5.03846 12.6086 5.37036 11.441 5.95029 10.4343Z" fill="black"/>
</svg>

<svg xmlns="http://www.w3.org/2000/svg" width="20" height="20" fill="none" viewBox="0 0 20 20">
    <path fill="#000" fill-rule="evenodd" d="M10.52 3.385c0-.765.62-1.385 1.384-1.385a2.654 2.654 0 0 1 2.654 2.654 7.1 7.1 0 0 1-.685 3.045v.013h2.581c1.181 0 2.345.81 2.484 2.121Q19 10.41 19 11c0 2.587-.902 4.965-2.407 6.834-.49.61-1.226.897-1.942.897h-3.399c-.49 0-.976-.08-1.44-.234l-2.636-.879a3 3 0 0 0-.967-.156h-.337c-.006.641-.477 1.269-1.245 1.269H3.86c-1.025 0-2.055-.603-2.386-1.689A10.9 10.9 0 0 1 1 13.856c0-1.41.268-2.758.756-3.996.388-.987 1.36-1.514 2.32-1.514h.891c.451 0 .795.212 1.005.514.223-.105.435-.276.615-.506a8.4 8.4 0 0 1 2.659-2.23c.508-.27.883-.638 1.054-1.068.145-.361.22-.746.22-1.135zM4.56 9.846h-.484c-.446 0-.797.24-.925.563a9.4 9.4 0 0 0-.651 3.447c0 .957.143 1.88.408 2.748.108.353.473.627.951.627h.388l-.1-.238a8.3 8.3 0 0 1-.609-3.137c0-1.452.37-2.819 1.022-4.01m1.39.588c.752-.143 1.384-.602 1.817-1.155a6.9 6.9 0 0 1 2.184-1.83c.714-.381 1.4-.98 1.742-1.836a4.6 4.6 0 0 0 .326-1.692v-.415c.583.058 1.039.55 1.039 1.148 0 .86-.194 1.674-.54 2.4a1.5 1.5 0 0 0-.146.658h-.468a.75.75 0 0 0 0 1.5h4.55c.557 0 .948.364.993.78q.053.496.053 1.008a9.36 9.36 0 0 1-2.076 5.894c-.165.206-.444.337-.773.337h-3.399a3 3 0 0 1-.966-.157l-2.636-.879a4.6 4.6 0 0 0-1.441-.234h-.842a6.9 6.9 0 0 1-.329-2.105 6.83 6.83 0 0 1 .912-3.422" clip-rule="evenodd"/>
</svg>
